lib/brands/icons/axway.svg

<svg xmlns="http://www.w3.org/2000/svg" fill="none" aria-hidden="true" viewBox="0 0 48 48"><g id="axway-Icon"><g id="Union"><path fill="#D22630" d="M42 21.4112V16.4356L34.5366 12.7771V20.2405L6 6.63074V11.6063L38.6341 27.1185V19.8015L42 21.4112Z"/><path fill="#D22630" d="M13.3021 24.979V29.9546L18.5704 32.4424L10.0826 41.3693H15.6436L25.5948 30.8327L13.3021 24.979Z"/><path fill="#D22630" d="M9.93639 15.9059L38.6193 29.662L32.7657 31.8571L9.93639 20.8815V15.9059Z"/></g></g></svg>

<svg xmlns="http://www.w3.org/2000/svg" fill="none" aria-hidden="true" viewBox="0 0 48 48"><path fill="#D22630" d="M42 21.411v-4.975l-7.463-3.659v7.464L6 6.63v4.975L38.634 27.12v-7.317L42 21.412Zm-28.698 3.568v4.976l5.268 2.487-8.487 8.927h5.56l9.952-10.536-12.293-5.854Zm-3.366-9.073L38.62 29.662l-5.853 2.195-22.83-10.976v-4.975Z"/></svg>
